svg/furkot/freepik/skiing.svg

<svg viewBox="0 0 512 512" xmlns="http://www.w3.org/2000/svg"><path d="m434.665 373.585c-1.955-9.111-10.915-14.906-20.003-12.928-9.088 1.955-14.883 10.915-12.928 20.015 3.898 18.176-7.727 36.119-25.891 40.029l-65.815 14.162v-85.691c0-28.485-23.052-51.479-51.538-51.479h-32.64c-3.107 0-5.981-2.63-5.981-5.725v-67.386c0-21.714-17.28-39.308-38.993-39.308-21.702 0-38.994 17.606-38.994 39.308v127.395c0 13.358 10.578 24.494 23.959 24.494h60.009c3.107 0 5.388 2.223 5.388 5.33v69.992l-129.943 27.998c-9.088 1.954-14.814 10.914-12.859 20.002 1.699 7.902 8.716 13.312 16.477 13.312 1.187 0 2.398-.128 3.584-.384l274.456-59.077c36.328-7.832 59.52-43.741 51.712-80.059z"/><path d="m139.532 443.904h27.38c9.297 0 16.838-7.75 16.838-17.059s-7.541-17.059-16.838-17.059h-27.38c-15.872 0-28.498-12.823-28.498-28.683v-364.265c0-9.298-7.761-16.838-17.07-16.838s-17.048 7.54-17.048 16.838v364.276c0 34.444 28.16 62.79 62.616 62.79z"/></svg>

<svg xmlns="http://www.w3.org/2000/svg" viewBox="0 0 512 512"><path d="M434.665 373.585C432.71 364.474 423.75 358.679 414.662 360.657 405.574 362.612 399.779 371.572 401.734 380.672 405.632 398.848 394.007 416.791 375.843 420.701L310.028 434.863V349.172C310.028 320.687 286.976 297.693 258.49 297.693H225.85C222.743 297.693 219.869 295.063 219.869 291.968V224.582C219.869 202.868 202.589 185.274 180.876 185.274 159.174 185.274 141.882 202.88 141.882 224.582V351.977C141.882 365.335 152.46 376.471 165.841 376.471H225.85C228.957 376.471 231.238 378.694 231.238 381.801V451.793L101.295 479.791C92.207 481.745 86.481 490.705 88.436 499.793 90.135 507.695 97.152 513.105 104.913 513.105 106.1 513.105 107.311 512.977 108.497 512.721L382.953 453.644C419.281 445.812 442.473 409.903 434.665 373.585Z"/><path d="M139.532 443.904H166.912C176.209 443.904 183.75 436.154 183.75 426.845S176.209 409.786 166.912 409.786H139.532C123.66 409.786 111.034 396.963 111.034 381.103V16.838C111.034 7.54 103.273 0 93.964 0S76.916 7.54 76.916 16.838V381.114C76.916 415.558 105.076 443.904 139.532 443.904Z"/></svg>
